X:3795
T:Danza (CT 054)
R:Danza
C:Tradicional
S:Música Tradicional Asturiana, (C) Tello & Tito. Asturies, 2001.
S:http://pagina.de/MusTradAst <telloytito@asturies.org>
N:Danza, transcrita en Casomera, ayuntamiento de Aller.
N:Toman parte en esta danza solamente mujeres, y todas las coplas que entonan, después de hecha la invocación religiosa, encierran un pensamiento zahiriendo a los hombres.
N:Aunque la frase melódica consta de tres miembros, de los cuales el 2º es repetición del 1º, se le ajustan cuartetas octosilábicas.
O:Casomera (Ayer)
A:Asturies
Z:Cancioneru de Torner 054
M:6/8
L:1/8
Q:3/8=80
W:¡Válgame Nuestra Señora,
W:válgame Nuestra Señora,
W:válgame El Señor San Pedro.
W:
W:Yo entregué mi corazón
W:Yo entregué mi corazón
W:a quien no lo merecía
W:
W:a quien no lo merecía
W:malhaya quien tiene amores
W:y quien de los hombres fía.
K:C
GB|:d3 edc|BA2- AGB|
d3 edc|BA2- Add|d2A BcB|[1 AG2- GGB:|[2 AG2- G||


